X: 3015
M: C|
L: 1/8
K: G
e3d e>fg>a | f2d2 :: a>fg>a |\
b3a g>ag>f | e3e a>gf>e |
d2d2 d2cB | c3B B3A |\
g2G>A B>cd>e | d2B2 e2e>B |\
c2de A3G | HG4 |]


